svg/24/square.svg

<svg width="24" height="24" viewBox="0 0 24 24" fill="currentColor" xmlns="http://www.w3.org/2000/svg"><path fill-rule="evenodd" clip-rule="evenodd" d="M5 3C3.89543 3 3 3.89543 3 5V19C3 20.1046 3.89543 21 5 21H19C20.1046 21 21 20.1046 21 19V5C21 3.89543 20.1046 3 19 3H5ZM19 4.5H5C4.72386 4.5 4.5 4.72386 4.5 5V19C4.5 19.2761 4.72386 19.5 5 19.5H19C19.2761 19.5 19.5 19.2761 19.5 19V5C19.5 4.72386 19.2761 4.5 19 4.5Z"/></svg>

<svg xmlns="http://www.w3.org/2000/svg" width="24" height="24" fill="currentColor" viewBox="0 0 24 24">
  <path fill-rule="evenodd" d="M5 3a2 2 0 0 0-2 2v14a2 2 0 0 0 2 2h14a2 2 0 0 0 2-2V5a2 2 0 0 0-2-2H5Zm14 1.5H5a.5.5 0 0 0-.5.5v14a.5.5 0 0 0 .5.5h14a.5.5 0 0 0 .5-.5V5a.5.5 0 0 0-.5-.5Z" clip-rule="evenodd"/>
</svg>
